minus-box-multiple.svg

<svg  viewBox="0 0 24 24" fill="currentColor"><path  d="M19 11H9V9H19M20 2H8C6.9 2 6 2.9 6 4V16C6 17.11 6.9 18 8 18H20C21.11 18 22 17.11 22 16V4C22 2.9 21.11 2 20 2M4 6H2V20C2 21.11 2.9 22 4 22H18V20H4V6Z"/></svg>

<svg fill="currentColor" viewBox="0 0 24 24"><path d="M19 11H9V9h10m1-7H8c-1.1 0-2 .9-2 2v12a2 2 0 0 0 2 2h12c1.11 0 2-.89 2-2V4a2 2 0 0 0-2-2M4 6H2v14a2 2 0 0 0 2 2h14v-2H4z"/></svg>
